images/ig.svg

<svg height="64" viewBox="0 0 64 64" width="64" xmlns="http://www.w3.org/2000/svg"><path d="m38.4539423 7.02120059-2.4323762-.02011012-8.2249528.00078426-2.5409737.02375708-1.6334655.04036094-1.929401.07993315c-2.6617097.12188651-4.478548.54328048-6.0682814 1.16156804-1.6444262.63860198-3.0393496 1.49284933-4.4290642 2.88308476-1.39075635 1.3897146-2.2450037 2.7846381-2.88568921 4.4285433-.61985021 1.5902544-1.04176506 3.4076135-1.16156804 6.0682815l-.06686755 1.5878733-.03098968.9715842-.02446959 1.1974644-.02584343 3.8412603.00430431 6.8253837.02471226 2.6566201.04894512 1.8630127.07072944 1.6733319c.1224074 2.6617097.54380136 4.478548 1.16156804 6.0682814.63912287 1.6444262 1.49337022 3.0393496 2.88360573 4.4290642 1.3891937 1.3907563 2.7841171 2.2470872 4.4275015 2.8856892 1.4972002.5819177 3.1951114.9894245 5.6083355 1.1369705l2.057238.0926868 1.5695559.0449471 2.336244.0277844 3.1969241.0095518 5.8146349-.0063214 2.540231-.0237571 1.6327104-.0403609 1.9289382-.0799331c2.6617097-.1218866 4.4806315-.5432805 6.0714068-1.1615681 1.6439052-.638602 3.0367451-1.4949329 4.4259388-2.8856892 1.3907564-1.3897146 2.2450037-2.784638 2.8856893-4.4285433.6146413-1.5902543 1.0365562-3.4076135 1.161568-6.0682815l.0949608-2.4382897.0340592-1.7758332.0201987-3.6557859-.0040024-6.3208656-.0290555-3.0646402-.0426663-1.5984421-.0734945-1.7626738c-.1250118-2.6617097-.5469267-4.478548-1.161568-6.0682815-.6406856-1.6444261-1.4949329-3.0393496-2.8856893-4.4290642-1.3907563-1.39075631-2.7815127-2.24500366-4.4275015-2.88308476-1.5939005-.61828756-3.4117805-1.03968153-6.0734903-1.16156804l-1.2420996-.05431146-1.3578306-.04571407zm-8.6947823 4.47305271v.0062506l6.110949.0050313 2.913907.0254408 1.4845173.0373855 1.8365844.0759059c1.5845247.0724548 2.6980934.2699109 3.5255234.4932367l.3622462.1045493.325649.1060573.2930896.1053994c.0463594.0173914.0915303.0346652.135597.0517762 1.1667768.4531678 1.9986262.9948856 2.873188 1.8699682.8750826.8750827 1.4168005 1.7084947 1.87101 2.8752716l.1042724.2780419.106035.3086385c.0176986.0542135.0353799.1098698.0529988.1670529l.1046005.3620928c.2062507.7635174.3904493 1.7710892.4742885 3.1678539l.0648399 1.4017474.0606308 1.8867849.0289888 2.3179095.0096036 3.2702585-.0063308 5.8318812-.0340361 2.9984254-.0352946 1.2036055-.0695779 1.6465955c-.0557345 1.2188651-.1854342 2.1590581-.3439778 2.9045712l-.0982265.4246182c-.0168276.0671001-.0338535.1324214-.0510324.1960478l-.1045493.3620928-.1060573.3254487c-.0176815.0514118-.0353357.1014647-.0529173.1502427l-.1042583.2780419c-.4531678 1.1667769-.9959274 1.9975845-1.87101 2.8721463-.8750827.8750827-1.7058903 1.4168005-2.873188 1.8699683l-.2780711.1046526-.3087177.106259c-.0542301.0177246-.1099046.0354268-.1671073.0530619l-.3622236.1046487c-.7638018.2062585-1.7717704.3899962-3.1685945.4740307l-2.0911528.0915833-1.3710377.0375202-2.008082.0245125-3.4088288.0105102-5.8347391-.0063308-2.9993634-.034036-1.2036923-.0352947-1.64657-.0695779c-1.5845246-.0731319-2.6980933-.2708251-3.5256664-.4942337l-.3623229-.1045777-.3257491-.1060701c-.0514682-.0176827-.1015809-.0353376-.1504222-.0529198l-.2784654-.1042593c-1.1667768-.4531678-2.0001889-.9948856-2.8752715-1.8699683-.8750827-.8750826-1.4168005-1.7064112-1.8710101-2.8737089l-.1042723-.2780419-.106035-.3086385c-.0176986-.0542135-.03538-.1098698-.0529988-.1670529l-.1046005-.3620928c-.0171876-.0636264-.034222-.1289477-.051058-.1960478l-.0982717-.4246182c-.1427479-.6709618-.2620795-1.4996143-.3249589-2.5471879l-.0776082-1.7229178-.0470628-1.5659274-.0246946-1.8191169-.0126566-3.7719293.0062508-5.8895843.0311004-2.8620365.0365585-1.2837917.0527342-1.2794019.0165547-.3666691c.0613079-1.3407517.2121138-2.34431.3923611-3.1226421l.1008755-.4028813.1045493-.3622462.1060573-.325649.1053994-.2930896c.0173915-.0463594.0346652-.0915303.0517762-.1355969.4531678-1.1667769.9959274-2.000189 1.8710101-2.8752716.8750826-.8750827 1.7084947-1.4168005 2.8752715-1.8710101l.2783388-.1046531.3089042-.1062626.3435012-.1057314c.0603573-.0174586.122324-.034806.1859844-.0519974l.402956-.1009203c.7077035-.1638925 1.6015575-.3032709 2.7655542-.3735347l1.6838806-.075859 1.353762-.0426104 2.0484575-.029685zm2.2423993 7.6632238c-7.090253 0-12.8392335 5.7489804-12.8392335 12.8397543s5.7489805 12.83715 12.8397544 12.83715 12.8376708-5.7463761 12.8376708-12.83715-5.7474178-12.8397543-12.8381917-12.8397543zm.0005209 4.5056338c4.602518 0 8.3341205 3.7310816 8.3341205 8.3341205 0 4.6025181-3.7316025 8.3341205-8.3341205 8.3341205-4.6030389 0-8.3341205-3.7316024-8.3341205-8.3341205 0-4.6030389 3.7310816-8.3341205 8.3341205-8.3341205zm13.3460522-8.012215c-1.6564065.0010417-3.0002834 1.343356-3.0002834 3.0002833 0 1.6564065 1.3438769 3.0002834 3.0002834 3.0002834 1.6564064 0 3.0002834-1.3438769 3.0002834-3.0002834 0-1.6564064-1.343877-3.0002833-3.0002834-3.0002833z" fill="#fff"/></svg>

<?xml version="1.0" encoding="UTF-8"?>
<svg width="64px" height="64px" viewBox="0 0 64 64" version="1.1" xmlns="http://www.w3.org/2000/svg" xmlns:xlink="http://www.w3.org/1999/xlink">
    <title>ig</title>
    <g id="ig" stroke="none" stroke-width="1" fill="none" fill-rule="evenodd">
        <path d="M38.4539423,7.02120059 L36.0215661,7.00109047 L36.0215661,7.00109047 L27.7966133,7.00187473 L27.7966133,7.00187473 L25.2556396,7.02563181 L25.2556396,7.02563181 L23.6221741,7.06599275 L23.6221741,7.06599275 L21.6927731,7.1459259 L21.6927731,7.1459259 C19.0310634,7.26781241 17.2142251,7.68920638 15.6244917,8.30749394 C13.9800655,8.94609592 12.5851421,9.80034327 11.1954275,11.1905787 C9.80467115,12.5802933 8.9504238,13.9752168 8.30973829,15.619122 C7.68988808,17.2093764 7.26797323,19.0267355 7.14817025,21.6874035 L7.0813027,23.2752768 L7.0813027,23.2752768 L7.05031302,24.246861 L7.05031302,24.246861 L7.02584343,25.4443254 L7.02584343,25.4443254 L7,29.2855857 L7,29.2855857 L7.00430431,36.1109694 L7.00430431,36.1109694 L7.02901657,38.7675895 L7.02901657,38.7675895 L7.07796169,40.6306022 L7.07796169,40.6306022 L7.14869113,42.3039341 L7.14869113,42.3039341 C7.27109853,44.9656438 7.69249249,46.7824821 8.31025917,48.3722155 C8.94938204,50.0166417 9.80362939,51.4115651 11.1938649,52.8012797 C12.5830586,54.192036 13.977982,55.0483669 15.6213664,55.6869689 C17.1185666,56.2688866 18.8164778,56.6763934 21.2297019,56.8239394 L23.2869399,56.9166262 L23.2869399,56.9166262 L24.8564958,56.9615733 L24.8564958,56.9615733 L27.1927398,56.9893577 L27.1927398,56.9893577 L30.3896639,56.9989095 L30.3896639,56.9989095 L36.2042988,56.9925881 L36.2042988,56.9925881 L38.7445298,56.968831 L38.7445298,56.968831 L40.3772402,56.9284701 L40.3772402,56.9284701 L42.3061784,56.848537 L42.3061784,56.848537 C44.9678881,56.7266504 46.7868099,56.3052565 48.3775852,55.6869689 C50.0214904,55.0483669 51.4143303,54.192036 52.803524,52.8012797 C54.1942804,51.4115651 55.0485277,50.0166417 55.6892133,48.3727364 C56.3038546,46.7824821 56.7257695,44.9651229 56.8507813,42.3044549 L56.9457421,39.8661652 L56.9457421,39.8661652 L56.9798013,38.090332 L56.9798013,38.090332 L57,34.4345461 L57,34.4345461 L56.9959976,28.1136805 L56.9959976,28.1136805 L56.9669421,25.0490403 L56.9669421,25.0490403 L56.9242758,23.4505982 L56.9242758,23.4505982 L56.8507813,21.6879244 L56.8507813,21.6879244 C56.7257695,19.0262147 56.3038546,17.2093764 55.6892133,15.6196429 C55.0485277,13.9752168 54.1942804,12.5802933 52.803524,11.1905787 C51.4127677,9.79982239 50.0220113,8.94557504 48.3760225,8.30749394 C46.782122,7.68920638 44.964242,7.26781241 42.3025322,7.1459259 L41.0604326,7.09161444 L41.0604326,7.09161444 L39.702602,7.04590037 L39.702602,7.04590037 L38.4539423,7.02120059 L38.4539423,7.02120059 Z M29.75916,11.4942533 L29.75916,11.5005039 L35.870109,11.5055352 L35.870109,11.5055352 L38.784016,11.530976 L38.784016,11.530976 L40.2685333,11.5683615 L40.2685333,11.5683615 L42.1051177,11.6442674 L42.1051177,11.6442674 C43.6896424,11.7167222 44.8032111,11.9141783 45.6306411,12.1375041 L45.9928873,12.2420534 L45.9928873,12.2420534 L46.3185363,12.3481107 L46.3185363,12.3481107 L46.6116259,12.4535101 C46.6579853,12.4709015 46.7031562,12.4881753 46.7472229,12.5052863 C47.9139997,12.9584541 48.7458491,13.5001719 49.6204109,14.3752545 C50.4954935,15.2503372 51.0372114,16.0837492 51.4914209,17.2505261 L51.5956933,17.528568 L51.5956933,17.528568 L51.7017283,17.8372065 C51.7194269,17.89142 51.7371082,17.9470763 51.7547271,18.0042594 L51.8593276,18.3663522 C52.0655783,19.1298696 52.2497769,20.1374414 52.3336161,21.5342061 L52.398456,22.9359535 L52.398456,22.9359535 L52.4590868,24.8227384 L52.4590868,24.8227384 L52.4880756,27.1406479 L52.4880756,27.1406479 L52.4976792,30.4109064 L52.4976792,30.4109064 L52.4913484,36.2427876 L52.4913484,36.2427876 L52.4573123,39.241213 L52.4573123,39.241213 L52.4220177,40.4448185 L52.4220177,40.4448185 L52.3524398,42.091414 L52.3524398,42.091414 C52.2967053,43.3102791 52.1670056,44.2504721 52.008462,44.9959852 L51.9102355,45.4206034 C51.8934079,45.4877035 51.876382,45.5530248 51.8592031,45.6166512 L51.7546538,45.978744 L51.7546538,45.978744 L51.6485965,46.3041927 C51.630915,46.3556045 51.6132608,46.4056574 51.5956792,46.4544354 L51.4914209,46.7324773 L51.4914209,46.7324773 C51.0382531,47.8992542 50.4954935,48.7300618 49.6204109,49.6046236 C48.7453282,50.4797063 47.9145206,51.0214241 46.7472229,51.4745919 L46.4691518,51.5792445 L46.4691518,51.5792445 L46.1604341,51.6855035 C46.106204,51.7032281 46.0505295,51.7209303 45.9933268,51.7385654 L45.6311032,51.8432141 C44.8673014,52.0494726 43.8593328,52.2332103 42.4625087,52.3172448 L40.3713559,52.4088281 L40.3713559,52.4088281 L39.0003182,52.4463483 L39.0003182,52.4463483 L36.9922362,52.4708608 L36.9922362,52.4708608 L33.5834074,52.481371 L33.5834074,52.481371 L27.7486683,52.4750402 L27.7486683,52.4750402 L24.7493049,52.4410042 L24.7493049,52.4410042 L23.5456126,52.4057095 L23.5456126,52.4057095 L21.8990426,52.3361316 L21.8990426,52.3361316 C20.314518,52.2629997 19.2009493,52.0653065 18.3733762,51.8418979 L18.0110533,51.7373202 L18.0110533,51.7373202 L17.6853042,51.6312501 C17.633836,51.6135674 17.5837233,51.5959125 17.534882,51.5783303 L17.2564166,51.474071 L17.2564166,51.474071 C16.0896398,51.0209032 15.2562277,50.4791854 14.3811451,49.6041027 C13.5060624,48.7290201 12.9643446,47.8976915 12.510135,46.7303938 L12.4058627,46.4523519 L12.4058627,46.4523519 L12.2998277,46.1437134 C12.2821291,46.0894999 12.2644477,46.0338436 12.2468289,45.9766605 L12.1422284,45.6145677 C12.1250408,45.5509413 12.1080064,45.48562 12.0911704,45.4185199 L11.9928987,44.9939017 C11.8501508,44.3229399 11.7308192,43.4942874 11.6679398,42.4467138 L11.5903316,40.723796 L11.5903316,40.723796 L11.5432688,39.1578686 L11.5432688,39.1578686 L11.5185742,37.3387517 L11.5185742,37.3387517 L11.5059176,33.5668224 L11.5059176,33.5668224 L11.5121684,27.6772381 L11.5121684,27.6772381 L11.5432688,24.8152016 L11.5432688,24.8152016 L11.5798273,23.5314099 L11.5798273,23.5314099 L11.6325615,22.252008 L11.6325615,22.252008 L11.6491162,21.8853389 C11.7104241,20.5445872 11.86123,19.5410289 12.0414773,18.7626968 L12.1423528,18.3598155 L12.1423528,18.3598155 L12.2469021,17.9975693 L12.2469021,17.9975693 L12.3529594,17.6719203 L12.3529594,17.6719203 L12.4583588,17.3788307 C12.4757503,17.3324713 12.493024,17.2873004 12.510135,17.2432338 C12.9633028,16.0764569 13.5060624,15.2430448 14.3811451,14.3679622 C15.2562277,13.4928795 16.0896398,12.9511617 17.2564166,12.4969521 L17.5347554,12.392299 L17.5347554,12.392299 L17.8436596,12.2860364 L17.8436596,12.2860364 L18.1871608,12.180305 C18.2475181,12.1628464 18.3094848,12.145499 18.3731452,12.1283076 L18.7761012,12.0273873 C19.4838047,11.8634948 20.3776587,11.7241164 21.5416554,11.6538526 L23.225536,11.5779936 L23.225536,11.5779936 L24.579298,11.5353832 L24.579298,11.5353832 L26.6277555,11.5056982 L26.6277555,11.5056982 L29.75916,11.4942533 L29.75916,11.4942533 Z M32.0015593,19.1574771 C24.9113063,19.1574771 19.1623258,24.9064575 19.1623258,31.9972314 C19.1623258,39.0880053 24.9113063,44.8343814 32.0020802,44.8343814 C39.0928541,44.8343814 44.839751,39.0880053 44.839751,31.9972314 C44.839751,24.9064575 39.0923332,19.1574771 32.0015593,19.1574771 Z M32.0020802,23.6631109 C36.6045982,23.6631109 40.3362007,27.3941925 40.3362007,31.9972314 C40.3362007,36.5997495 36.6045982,40.3313519 32.0020802,40.3313519 C27.3990413,40.3313519 23.6679597,36.5997495 23.6679597,31.9972314 C23.6679597,27.3941925 27.3990413,23.6631109 32.0020802,23.6631109 Z M45.3481324,15.6508959 C43.6917259,15.6519376 42.347849,16.9942519 42.347849,18.6511792 C42.347849,20.3075857 43.6917259,21.6514626 45.3481324,21.6514626 C47.0045388,21.6514626 48.3484158,20.3075857 48.3484158,18.6511792 C48.3484158,16.9947728 47.0045388,15.6508959 45.3481324,15.6508959 Z" id="Shape" fill="#FFFFFF" fill-rule="nonzero"></path>
    </g>
</svg>
